icons/svgs/file-pen-solid.svg

<svg width="24" height="24" viewBox="0 0 24 24" fill="none" xmlns="http://www.w3.org/2000/svg">
<path d="M1.25 4.5C1.25 3.13281 2.34375 2 3.75 2H10V7C10 7.70312 10.5469 8.25 11.25 8.25H16.25V13.1719L12.8516 16.5703C12.4219 16.9609 12.1484 17.4688 12.0312 18.0156L11.2891 20.9453C11.2109 21.2969 11.2109 21.6875 11.3281 22.0391H3.75C2.34375 22.0391 1.25 20.9062 1.25 19.5391V4.5ZM16.25 7H11.25V2L16.25 7ZM22.6953 11.2188L23.2812 11.8047C23.8672 12.3906 23.8672 13.3672 23.2812 13.9922L22.1094 15.1641L19.3359 12.3906L20.5078 11.2188C21.0938 10.6328 22.1094 10.6328 22.6953 11.2188ZM13.3984 18.2891L18.4766 13.25L21.25 16.0234L16.1719 21.0625C16.0156 21.2188 15.8203 21.3359 15.625 21.4141L13.2422 22C13.0469 22.0391 12.8125 22 12.6562 21.8438C12.5 21.6875 12.4609 21.4531 12.5 21.2188L13.0859 18.875C13.125 18.6797 13.2422 18.4453 13.3984 18.2891Z" fill="black"/>
</svg>

<svg xmlns="http://www.w3.org/2000/svg" width="24" height="24" fill="currentColor" class="icon-file-pen-solid" viewBox="0 0 24 24">
  <mask id="a" width="23" height="21" x="1" y="2" maskUnits="userSpaceOnUse" style="mask-type:alpha">
    <path d="M1.25 4.5c0-1.367 1.094-2.5 2.5-2.5H10v5c0 .703.547 1.25 1.25 1.25h5v4.922l-3.398 3.398c-.43.39-.704.899-.82 1.446l-.743 2.93c-.078.35-.078.741.04 1.093H3.75a2.49 2.49 0 0 1-2.5-2.5zm15 2.5h-5V2zm6.445 4.219.586.586c.586.586.586 1.562 0 2.187l-1.172 1.172-2.773-2.773 1.172-1.172c.586-.586 1.601-.586 2.187 0m-9.297 7.07 5.079-5.039 2.773 2.773-5.078 5.04a1.6 1.6 0 0 1-.547.351L13.242 22c-.195.04-.43 0-.586-.156-.156-.157-.195-.39-.156-.625l.586-2.344a1.23 1.23 0 0 1 .312-.586"/>
  </mask>
  <g mask="url(#a)">
    <path d="M0 0h24v24H0z"/>
  </g>
</svg>
